X:97
T:MacBugle's Wedding
R:jig
C:Paul S. Cranford
O:Cape Breton Island
S:http://www.cranfordpub.com
D:currently unrecorded
B:Canadian Fiddle Music Vo. 2, Ed Whitcomb
Z:psc, (re-formatted,updated 9/17/04)
N:
H:                                                        copyrights Cranford Publications, SOCAN
L:1/8
Q:300
M:6/8
K:G
GBB BAB|dBB B2 d|cBc ABc|edc d2 B|
GBB BAB|dBB Bcd|cBc edB|1G3 G2 D:|2G3 G2||
|:f|gdd edB|ded Bcd|cBc ABc|edc def|
gdb agf|gdB GAB|cBc edB|G3 G2:|
|:c|Bee ede|bfa gee|bfa gfg|afe d2 c|
Bee ede|bfa gee|bgb aba|gee e2:|
|:f|gdB bgb|afe def|gbb faa|gee e2 f|
gdB bgb|afe dfa|bgg aff|1gee e2:|2gee dBA|]
